X:1
T: Let it be so
C:
R:Jig
Q:180
K:D
M:6/8
L:1/16
B2|ABc2A2 A2F2E2|F6 F2E2D2|ABc2A2 A2F2A2|D2F2A2 d2c2B2|ABc2A2 A2F2E2|F2G2F2 F2E2F2|D2E2D2 F2E2F2|D2F2A2 d4B2|
ABc2A2 A2F2E2|F6 F2E2D2|ABc2A2 A2F2A2|D2F2A2 d2c2B2|ABc2A2 A2F2E2|F2G2F2 F2E2F2|D2E2D2 F2E2F2|D2F2A2 d4B2|
ABc2d2 e4d2|efe2d2 c2B2A2|ABc2d2 e4f2|g2f2e2 d4A2|d2e2f2 g2f2e2|d2e2d2 d2c2B2|ABc2A2 A2F2A2|D2F2A2 d4B2|
ABc2d2 e4d2|efe2d2 c2B2A2|ABc2d2 e4f2|g2f2e2 d4A2|d2e2f2 g2f2e2|d2e2d2 d2c2B2|ABc2A2 A2F2A2|D2F2A2 d4||
